archdroid-icon-theme/Archdroid-DeepOrange/apps/scalable/bluetooth.svg

<svg fill="#FF5722" height="48" version="1.1" viewBox="0 0 48 40" width="48" xmlns="http://www.w3.org/2000/svg"><path d="M36.705 11.41L25.295 0l-2 0 0 15.17L14.125 6 11.295 8.83 22.465 20 11.295 31.17l2.83 2.83 9.17-9.17 0 15.17 2 0L36.705 28.59 28.125 20 36.705 11.41ZM27.295 7.66L31.055 11.42l-3.76 3.75 0-7.51zm3.76 20.93l-3.76 3.75 0-7.52 3.76 3.77z"/></svg>

<svg fill="#FF5722" height="48" viewBox="0 0 48 40" width="48" xmlns="http://www.w3.org/2000/svg"><path d="m36.705 11.41-11.41-11.41h-2v15.17l-9.17-9.17-2.83 2.83 11.17 11.17-11.17 11.17 2.83 2.83 9.17-9.17v15.17h2l11.41-11.41-8.58-8.59zm-9.41-3.75 3.76 3.76-3.76 3.75zm3.76 20.93-3.76 3.75v-7.52z" fill="#FF5722"/></svg>
